X:1
T:Title
%%score { 1 | ( 2 3 ) }
L:1/8
Q:1/4=100
M:3/4
K:F
V:1 treble nm="Grand Piano"
V:2 bass 
V:3 bass 
V:1
 [Fc]2 [Fd]2 [FA]2 | B3 A G2 | G2 A2 [^CE]2 | F3 E D2 | E2 _A2 =B2 | c6 | c2 d2 [Ge]2 | %7
w: Hubert~P.~Main * *|||||||
 [Ff]3 [Ge] [Fd]2 | [_Ae]2 [Ae]2 d2 | c3 =B A2 | c2 c2 [CEB]2 | [CFA]3 [DFB] [_EFc]2 | %12
w: |||||
 .[DGc]2 [CFA]2 [B,EG]2 | [A,F]6 |] %14
w: ||
V:2
 [F,A,]2 [D,A,]2 [D,D]2 | [G,DG]3 [A,D^F] [B,D]2 | [A,^CE]2 [A,C]2[K:bass] [A,,A,]2 | %3
 [D,A,D]3 [E,A,^C] [F,A,]2 | [E,_A,D]2 [E,=B,E]2[K:treble] [A,B,E]2 | [A,E]6 | %6
 [G,B,E]2 [G,B,F]2[K:bass] [C,B,]2 | [D,A,]3 [E,A,] [F,A,]2 | [E,=B,]2 [E,B,]2 [_A,B,E]2 | %9
 [A,E]3 [A,DE] [A,CE]2 | [B,D]2 [G,B,E]2 C,2 | F,3 D, A,,2 | z[K:treble] B[K:bass] C,2 C,2 | F,6 |] %14
V:3
 x6 | x6 | x4[K:bass] x2 | x6 | x4[K:treble] x2 | x6 | x4[K:bass] x2 | x6 | x6 | x6 | x6 | x6 | %12
 B,,2[K:treble][K:bass] z2 z2 | x6 |] %14

